public/favicon.svg

<svg xmlns="http://www.w3.org/2000/svg" xml:space="preserve" viewBox="0 0 1200 1200"><path fill="#36B635" d="M1 447V1h1200v1200H1V447m106.491104 190.151428c3.632156 24.527527 5.656777 49.420899 11.143036 73.526489 60.487457 265.770325 323.155472 431.989808 589.421463 373.487 278.098999-61.102783 447.882629-347.035156 368.447327-620.501648-74.505616-256.495209-337.175476-407.542557-596.677094-342.454277C252.231216 178.294357 90.3564 391.394073 107.491104 637.151428z"/><path fill="#020702" d="M107.437592 636.684326C90.3564 391.394073 252.231216 178.294357 479.825836 121.208992c259.501618-65.08828 522.171478 85.959068 596.677094 342.454277 79.435302 273.466492-90.348328 559.398865-368.447327 620.501648-266.265991 58.502808-528.934006-107.716675-589.421463-373.487-5.486259-24.10559-7.51088-48.998962-11.196548-73.993591m980.720001-28.184387c.812011-48.320007-5.342285-95.735962-18.756592-142.163879-72.313721-250.282471-327.48584-399.506501-580.942902-339.474984C230.688293 187.914078 62.088074 447.54422 127.867516 717.022217c62.400917 255.637085 314.312355 413.864136 572.269264 361.130737 222.083313-45.399902 385.162781-242.373169 388.020813-469.653015z"/><path fill="#35B334" d="M1088.152588 608.999695c-2.853027 226.78009-165.932495 423.753357-388.015808 469.153259-257.956909 52.733399-509.868347-105.493652-572.269264-361.130737C62.088074 447.54422 230.688293 187.914078 488.458099 126.861076c253.457062-60.031517 508.629181 89.192513 580.942902 339.474984 13.414307 46.427917 19.568603 93.843872 18.751587 142.663635M285.274567 249.760193C161.655396 361.782532 106.112312 526.97345 137.178177 690.214111c48.641785 255.596253 297.448044 424.003907 553.353134 374.544068 270.317871-52.245423 439.163635-324.486756 365.662048-589.581269-62.580017-225.704086-280.335083-371.553764-512.777649-342.883682-97.914611 12.077057-183.760833 51.538513-258.141143 117.466965z"/><path d="M285.53418 249.521164c74.120697-65.689423 159.966919-105.150879 257.88153-117.227936 232.442566-28.670082 450.197632 117.179596 512.777649 342.883682 73.501587 265.094513-95.344177 537.335846-365.662048 589.581269-255.90509 49.459839-504.711349-118.947815-553.353134-374.544068-31.065865-163.240661 24.477219-328.431579 148.356003-440.692947m282.965576 339.754349h129.912842c0-2.547303.000061-4.514649.000061-6.481995-.000367-50.135132.004699-100.270294-.005616-150.405456-.002136-10.480988-4.017211-14.55658-14.438964-14.56012-55.298523-.018829-110.597107-.018128-165.89563-.001862-10.444611.003083-14.477021 4.067078-14.479248 14.521515-.01062 50.135132-.005066 100.270264-.00528 150.405396v6.522278c21.688141 0 42.799957 0 64.911835.000244z"/><path fill="#35B334" d="M567.999756 589.275391c-21.611878-.000122-42.723694-.000122-64.411835-.000122v-6.522278c.000214-50.135132-.00534-100.270264.00528-150.405396.002227-10.454437 4.034637-14.518432 14.479248-14.521515 55.298523-.016266 110.597107-.016967 165.89563.001862 10.421753.00354 14.436828 4.079132 14.438964 14.56012.010315 50.135162.005249 100.270324.005616 150.405456 0 1.967346-.000061 3.934692-.000061 6.481995-43.703064 0-86.807923 0-130.412842-.000122M576.5 448.977783h-64.843018c-.161987 2.16275-.345001 3.470246-.34552 4.777802-.015808 40.988891.065003 81.978119-.119903 122.966156-.02179 4.825805 2.310272 4.876404 5.837433 4.872925 55.984741-.055237 111.969665-.091065 167.954101.059875 4.665406.012573 5.832398-1.432922 5.814453-5.945129-.160583-40.321778-.089599-80.64444-.106506-120.966828-.000732-1.779114-.192322-3.558197-.319641-5.76477-37.941406 0-75.406372 0-113.871399-.000031m49.999939-7.861297h63.836182c.166015-1.996766.319275-3.138916.34729-4.28415.27362-11.172393.267639-11.173278-10.70105-11.173339-52.990723-.000336-105.981384-.001099-158.972107.003082-1.832275.000122-3.898254-.469666-5.433472.219482-1.660522.745392-3.751556 2.436096-4.018524 3.994782-.600128 3.50357-.188141 7.180481-.188141 11.240082 38.525696 0 76.327759 0 115.129822.000061z"/><path fill="#010201" d="M577 448.977783c37.965027.000031 75.429993.000031 113.371399.000031.127319 2.206573.318909 3.985656.319641 5.76477.016907 40.322388-.054077 80.64505.106506 120.966828.017945 4.512207-1.149047 5.957702-5.814453 5.945129-55.984436-.15094-111.96936-.115112-167.954101-.059875-3.527161.003479-5.859223-.04712-5.837433-4.872925.184906-40.988037.104095-81.977265.119903-122.966156.000519-1.307556.183533-2.615052.34552-4.777802H577m27.091003 39.566132c-8.42987 20.64917-16.857299 41.299286-25.292663 61.946258-1.119263 2.739685-2.263245 5.730713 1.413879 7.201294 3.330872 1.332154 4.699585-1.29602 5.771546-3.920044 11.203735-27.42688 22.480407-54.824432 33.487182-82.330047.695435-1.737915.042053-5.411347-1.250793-6.264801-2.882263-1.902588-4.786194.489563-5.906861 3.242157-2.635986 6.474304-5.293212 12.939941-8.22229 20.125183m-36.841613 30.708954c-6.613587-3.786866-13.227173-7.573731-20.615662-11.804291 7.117798-4.076294 13.551575-7.770783 19.996033-11.446503 2.480346-1.414734 4.983764-3.355011 2.718445-6.129059-.993164-1.216217-4.693482-1.540771-6.338868-.684204-8.540466 4.445984-16.868957 9.311951-25.158569 14.221802-4.204102 2.490021-4.283447 5.504242-.187927 7.941223 8.421997 5.011383 16.916992 9.915253 25.572449 14.503937 1.420043.752869 3.811645-.326965 5.754211-.559815-.382813-1.872009-.765625-3.744079-1.740112-6.04309m85.396118-1.132874c4.029114-2.320129 8.118042-4.543579 12.067749-6.99176 3.011841-1.866821 3.874145-4.822662.691101-6.789215-9.034668-5.581879-18.314514-10.782837-27.681885-15.789459-1.123474-.600495-4.199768.442718-4.872925 1.597442-.623596 1.069458.382508 3.58374 1.373719 4.953064.893798 1.234711 2.72821 1.800141 4.16748 2.626312 5.432007 3.117981 10.87207 6.221985 16.977844 9.713684-7.216186 4.136231-13.800842 7.654541-20.055725 11.684754-1.471008.947876-2.916443 3.949585-2.470764 5.435913.907837 3.028076 3.724854 2.714844 6.186829 1.329956 4.341797-2.4422 8.654297-4.936462 13.616577-7.770691z"/><path fill="#000100" d="M625.999878 441.116455c-38.302002-.00003-76.104065-.00003-114.629761-.00003 0-4.059601-.411987-7.736512.188141-11.240082.266968-1.558686 2.358002-3.24939 4.018524-3.994782 1.535218-.689148 3.601197-.21936 5.433472-.219482 52.990723-.004181 105.981384-.003418 158.972107-.003082 10.968689.000061 10.97467.000946 10.70105 11.173339-.028015 1.145234-.181275 2.287384-.34729 4.28415-21.358216 0-42.597229 0-64.336243-.000031z"/><path fill="#34B033" d="M604.231201 488.185883c2.78888-6.82721 5.446106-13.292847 8.082092-19.767151 1.120667-2.752594 3.024598-5.144745 5.906861-3.242157 1.292846.853454 1.946228 4.526886 1.250793 6.264801-11.006775 27.505615-22.283447 54.903167-33.487182 82.330047-1.071961 2.624024-2.440674 5.252198-5.771546 3.920044-3.677124-1.470581-2.533142-4.461609-1.413879-7.201294 8.435364-20.646972 16.862793-41.297088 25.432861-62.30429zM567.545227 519.46637c.67865 2.08551 1.061462 3.95758 1.444275 5.829589-1.942566.23285-4.334168 1.312684-5.754211.559815-8.655457-4.588684-17.150452-9.492554-25.572449-14.503937-4.09552-2.436981-4.016175-5.451202.187927-7.941223 8.289612-4.909851 16.618103-9.775818 25.158569-14.221802 1.645386-.856567 5.345704-.532013 6.338868.684204 2.265319 2.774048-.238099 4.714325-2.718445 6.129059-6.444458 3.67572-12.878235 7.370209-19.996033 11.446503 7.388489 4.23056 14.002075 8.017425 20.911499 12.017792zM652.326782 518.300903c-4.643554 2.653321-8.956054 5.147583-13.297851 7.589783-2.461975 1.384888-5.278992 1.69812-6.186829-1.329956-.445679-1.486328.999756-4.488037 2.470764-5.435913 6.254883-4.030213 12.839539-7.548523 20.055725-11.684754-6.105774-3.491699-11.545837-6.595703-16.977844-9.713684-1.43927-.826171-3.273682-1.391601-4.16748-2.626312-.991211-1.369324-1.997315-3.883606-1.373719-4.953064.673157-1.154724 3.749451-2.197937 4.872925-1.597442 9.367371 5.006622 18.647217 10.20758 27.681885 15.789459 3.183044 1.966553 2.32074 4.922394-.691101 6.789215-3.949707 2.448181-8.038635 4.671631-12.386475 7.172668z"/></svg>

<svg version="1.1" id="Layer_1" xmlns="http://www.w3.org/2000/svg" xmlns:xlink="http://www.w3.org/1999/xlink" x="0px" y="0px"
	 width="100%" viewBox="0 0 1200 1200" enable-background="new 0 0 1200 1200" xml:space="preserve">
<path fill="#36B635" opacity="1.000000" stroke="none" 
	d="
M1.000000,447.000000 
	C1.000000,298.000000 1.000000,149.500000 1.000000,1.000000 
	C401.000000,1.000000 801.000000,1.000000 1201.000000,1.000000 
	C1201.000000,401.000000 1201.000000,801.000000 1201.000000,1201.000000 
	C801.000000,1201.000000 401.000000,1201.000000 1.000000,1201.000000 
	C1.000000,949.833313 1.000000,698.666687 1.000000,447.000000 
M107.491104,637.151428 
	C111.123260,661.678955 113.147881,686.572327 118.634140,710.677917 
	C179.121597,976.448242 441.789612,1142.667725 708.055603,1084.164917 
	C986.154602,1023.062134 1155.938232,737.129761 1076.502930,463.663269 
	C1001.997314,207.168060 739.327454,56.120712 479.825836,121.208992 
	C252.231216,178.294357 90.356400,391.394073 107.491104,637.151428 
z"/>
<path fill="#020702" opacity="1.000000" stroke="none" 
	d="
M107.437592,636.684326 
	C90.356400,391.394073 252.231216,178.294357 479.825836,121.208992 
	C739.327454,56.120712 1001.997314,207.168060 1076.502930,463.663269 
	C1155.938232,737.129761 986.154602,1023.062134 708.055603,1084.164917 
	C441.789612,1142.667725 179.121597,976.448242 118.634140,710.677917 
	C113.147881,686.572327 111.123260,661.678955 107.437592,636.684326 
M1088.157593,608.499939 
	C1088.969604,560.179932 1082.815308,512.763977 1069.401001,466.336060 
	C997.087280,216.053589 741.915161,66.829559 488.458099,126.861076 
	C230.688293,187.914078 62.088074,447.544220 127.867516,717.022217 
	C190.268433,972.659302 442.179871,1130.886353 700.136780,1078.152954 
	C922.220093,1032.753052 1085.299561,835.779785 1088.157593,608.499939 
z"/>
<path fill="#35B334" opacity="1.000000" stroke="none" 
	d="
M1088.152588,608.999695 
	C1085.299561,835.779785 922.220093,1032.753052 700.136780,1078.152954 
	C442.179871,1130.886353 190.268433,972.659302 127.867516,717.022217 
	C62.088074,447.544220 230.688293,187.914078 488.458099,126.861076 
	C741.915161,66.829559 997.087280,216.053589 1069.401001,466.336060 
	C1082.815308,512.763977 1088.969604,560.179932 1088.152588,608.999695 
M285.274567,249.760193 
	C161.655396,361.782532 106.112312,526.973450 137.178177,690.214111 
	C185.819962,945.810364 434.626221,1114.218018 690.531311,1064.758179 
	C960.849182,1012.512756 1129.694946,740.271423 1056.193359,475.176910 
	C993.613342,249.472824 775.858276,103.623146 543.415710,132.293228 
	C445.501099,144.370285 359.654877,183.831741 285.274567,249.760193 
z"/>
<path fill="#000000" opacity="1.000000" stroke="none" 
	d="
M285.534180,249.521164 
	C359.654877,183.831741 445.501099,144.370285 543.415710,132.293228 
	C775.858276,103.623146 993.613342,249.472824 1056.193359,475.176910 
	C1129.694946,740.271423 960.849182,1012.512756 690.531311,1064.758179 
	C434.626221,1114.218018 185.819962,945.810364 137.178177,690.214111 
	C106.112312,526.973450 161.655396,361.782532 285.534180,249.521164 
M568.499756,589.275513 
	C611.604675,589.275513 654.709534,589.275513 698.412598,589.275513 
	C698.412598,586.728210 698.412659,584.760864 698.412659,582.793518 
	C698.412292,532.658386 698.417358,482.523224 698.407043,432.388062 
	C698.404907,421.907074 694.389832,417.831482 683.968079,417.827942 
	C628.669556,417.809113 573.370972,417.809814 518.072449,417.826080 
	C507.627838,417.829163 503.595428,421.893158 503.593201,432.347595 
	C503.582581,482.482727 503.588135,532.617859 503.587921,582.752991 
	C503.587921,584.721680 503.587921,586.690369 503.587921,589.275269 
	C525.276062,589.275269 546.387878,589.275269 568.499756,589.275513 
z"/>
<path fill="#35B334" opacity="1.000000" stroke="none" 
	d="
M567.999756,589.275391 
	C546.387878,589.275269 525.276062,589.275269 503.587921,589.275269 
	C503.587921,586.690369 503.587921,584.721680 503.587921,582.752991 
	C503.588135,532.617859 503.582581,482.482727 503.593201,432.347595 
	C503.595428,421.893158 507.627838,417.829163 518.072449,417.826080 
	C573.370972,417.809814 628.669556,417.809113 683.968079,417.827942 
	C694.389832,417.831482 698.404907,421.907074 698.407043,432.388062 
	C698.417358,482.523224 698.412292,532.658386 698.412659,582.793518 
	C698.412659,584.760864 698.412598,586.728210 698.412598,589.275513 
	C654.709534,589.275513 611.604675,589.275513 567.999756,589.275391 
M576.500000,448.977783 
	C554.930603,448.977783 533.361267,448.977783 511.656982,448.977783 
	C511.494995,451.140533 511.311981,452.448029 511.311462,453.755585 
	C511.295654,494.744476 511.376465,535.733704 511.191559,576.721741 
	C511.169769,581.547546 513.501831,581.598145 517.028992,581.594666 
	C573.013733,581.539429 628.998657,581.503601 684.983093,581.654541 
	C689.648499,581.667114 690.815491,580.221619 690.797546,575.709412 
	C690.636963,535.387634 690.707947,495.064972 690.691040,454.742584 
	C690.690308,452.963470 690.498718,451.184387 690.371399,448.977814 
	C652.429993,448.977814 614.965027,448.977814 576.500000,448.977783 
M626.499939,441.116486 
	C647.738892,441.116486 668.977905,441.116486 690.336121,441.116486 
	C690.502136,439.119720 690.655396,437.977570 690.683411,436.832336 
	C690.957031,425.659943 690.951050,425.659058 679.982361,425.658997 
	C626.991638,425.658661 574.000977,425.657898 521.010254,425.662079 
	C519.177979,425.662201 517.112000,425.192413 515.576782,425.881561 
	C513.916260,426.626953 511.825226,428.317657 511.558258,429.876343 
	C510.958130,433.379913 511.370117,437.056824 511.370117,441.116425 
	C549.895813,441.116425 587.697876,441.116425 626.499939,441.116486 
z"/>
<path fill="#010201" opacity="1.000000" stroke="none" 
	d="
M577.000000,448.977783 
	C614.965027,448.977814 652.429993,448.977814 690.371399,448.977814 
	C690.498718,451.184387 690.690308,452.963470 690.691040,454.742584 
	C690.707947,495.064972 690.636963,535.387634 690.797546,575.709412 
	C690.815491,580.221619 689.648499,581.667114 684.983093,581.654541 
	C628.998657,581.503601 573.013733,581.539429 517.028992,581.594666 
	C513.501831,581.598145 511.169769,581.547546 511.191559,576.721741 
	C511.376465,535.733704 511.295654,494.744476 511.311462,453.755585 
	C511.311981,452.448029 511.494995,451.140533 511.656982,448.977783 
	C533.361267,448.977783 554.930603,448.977783 577.000000,448.977783 
M604.091003,488.543915 
	C595.661133,509.193085 587.233704,529.843201 578.798340,550.490173 
	C577.679077,553.229858 576.535095,556.220886 580.212219,557.691467 
	C583.543091,559.023621 584.911804,556.395447 585.983765,553.771423 
	C597.187500,526.344543 608.464172,498.946991 619.470947,471.441376 
	C620.166382,469.703461 619.513000,466.030029 618.220154,465.176575 
	C615.337891,463.273987 613.433960,465.666138 612.313293,468.418732 
	C609.677307,474.893036 607.020081,481.358673 604.091003,488.543915 
M567.249390,519.252869 
	C560.635803,515.466003 554.022217,511.679138 546.633728,507.448578 
	C553.751526,503.372284 560.185303,499.677795 566.629761,496.002075 
	C569.110107,494.587341 571.613525,492.647064 569.348206,489.873016 
	C568.355042,488.656799 564.654724,488.332245 563.009338,489.188812 
	C554.468872,493.634796 546.140381,498.500763 537.850769,503.410614 
	C533.646667,505.900635 533.567322,508.914856 537.662842,511.351837 
	C546.084839,516.363220 554.579834,521.267090 563.235291,525.855774 
	C564.655334,526.608643 567.046936,525.528809 568.989502,525.295959 
	C568.606689,523.423950 568.223877,521.551880 567.249390,519.252869 
M652.645508,518.119995 
	C656.674622,515.799866 660.763550,513.576416 664.713257,511.128235 
	C667.725098,509.261414 668.587402,506.305573 665.404358,504.339020 
	C656.369690,498.757141 647.089844,493.556183 637.722473,488.549561 
	C636.598999,487.949066 633.522705,488.992279 632.849548,490.147003 
	C632.225952,491.216461 633.232056,493.730743 634.223267,495.100067 
	C635.117065,496.334778 636.951477,496.900208 638.390747,497.726379 
	C643.822754,500.844360 649.262817,503.948364 655.368591,507.440063 
	C648.152405,511.576294 641.567749,515.094604 635.312866,519.124817 
	C633.841858,520.072693 632.396423,523.074402 632.842102,524.560730 
	C633.749939,527.588806 636.566956,527.275574 639.028931,525.890686 
	C643.370728,523.448486 647.683228,520.954224 652.645508,518.119995 
z"/>
<path fill="#000100" opacity="1.000000" stroke="none" 
	d="
M625.999878,441.116455 
	C587.697876,441.116425 549.895813,441.116425 511.370117,441.116425 
	C511.370117,437.056824 510.958130,433.379913 511.558258,429.876343 
	C511.825226,428.317657 513.916260,426.626953 515.576782,425.881561 
	C517.112000,425.192413 519.177979,425.662201 521.010254,425.662079 
	C574.000977,425.657898 626.991638,425.658661 679.982361,425.658997 
	C690.951050,425.659058 690.957031,425.659943 690.683411,436.832336 
	C690.655396,437.977570 690.502136,439.119720 690.336121,441.116486 
	C668.977905,441.116486 647.738892,441.116486 625.999878,441.116455 
z"/>
<path fill="#34B033" opacity="1.000000" stroke="none" 
	d="
M604.231201,488.185883 
	C607.020081,481.358673 609.677307,474.893036 612.313293,468.418732 
	C613.433960,465.666138 615.337891,463.273987 618.220154,465.176575 
	C619.513000,466.030029 620.166382,469.703461 619.470947,471.441376 
	C608.464172,498.946991 597.187500,526.344543 585.983765,553.771423 
	C584.911804,556.395447 583.543091,559.023621 580.212219,557.691467 
	C576.535095,556.220886 577.679077,553.229858 578.798340,550.490173 
	C587.233704,529.843201 595.661133,509.193085 604.231201,488.185883 
z"/>
<path fill="#34B033" opacity="1.000000" stroke="none" 
	d="
M567.545227,519.466370 
	C568.223877,521.551880 568.606689,523.423950 568.989502,525.295959 
	C567.046936,525.528809 564.655334,526.608643 563.235291,525.855774 
	C554.579834,521.267090 546.084839,516.363220 537.662842,511.351837 
	C533.567322,508.914856 533.646667,505.900635 537.850769,503.410614 
	C546.140381,498.500763 554.468872,493.634796 563.009338,489.188812 
	C564.654724,488.332245 568.355042,488.656799 569.348206,489.873016 
	C571.613525,492.647064 569.110107,494.587341 566.629761,496.002075 
	C560.185303,499.677795 553.751526,503.372284 546.633728,507.448578 
	C554.022217,511.679138 560.635803,515.466003 567.545227,519.466370 
z"/>
<path fill="#34B033" opacity="1.000000" stroke="none" 
	d="
M652.326782,518.300903 
	C647.683228,520.954224 643.370728,523.448486 639.028931,525.890686 
	C636.566956,527.275574 633.749939,527.588806 632.842102,524.560730 
	C632.396423,523.074402 633.841858,520.072693 635.312866,519.124817 
	C641.567749,515.094604 648.152405,511.576294 655.368591,507.440063 
	C649.262817,503.948364 643.822754,500.844360 638.390747,497.726379 
	C636.951477,496.900208 635.117065,496.334778 634.223267,495.100067 
	C633.232056,493.730743 632.225952,491.216461 632.849548,490.147003 
	C633.522705,488.992279 636.598999,487.949066 637.722473,488.549561 
	C647.089844,493.556183 656.369690,498.757141 665.404358,504.339020 
	C668.587402,506.305573 667.725098,509.261414 664.713257,511.128235 
	C660.763550,513.576416 656.674622,515.799866 652.326782,518.300903 
z"/>
</svg>
